dist/logo-light.de74f3e9.svg

<?xml version="1.0" encoding="UTF-8" standalone="no" ?>
<svg viewBox="0 0 256 425" version="1.1" xmlns="http://www.w3.org/2000/svg" xmlns:xlink="http://www.w3.org/1999/xlink" preserveAspectRatio="xMidYMid">
    <defs>
        <linearGradient x1="50%" y1="-352.925786%" x2="50%" y2="96.7175267%" id="linearGradient-1">
            <stop stop-color="#187e9b" offset="0%"></stop>
            <stop stop-color="#177bad" offset="100%"></stop>
        </linearGradient>
        <linearGradient x1="50%" y1="-2.80786187%" x2="50%" y2="428.758892%" id="linearGradient-2">
            <stop stop-color="#44cca3" offset="0%"></stop>
            <stop stop-color="#44cca3" offset="100%"></stop>
        </linearGradient>
        <radialGradient cx="16.4234038%" cy="142.999709%" fx="16.4234038%" fy="142.999709%" r="295.57111%" id="radialGradient-3">
            <stop stop-color="#44cca3" offset="0%"></stop>
            <stop stop-color="#30c4b7" offset="100%"></stop>
        </radialGradient>
        <radialGradient cx="16.423338%" cy="-42.999755%" fx="16.423338%" fy="-42.999755%" r="357.003966%" id="radialGradient-4">
            <stop stop-color="#3bd1a4" offset="0%"></stop>
            <stop stop-color="#48eee0" offset="100%"></stop>
        </radialGradient>
        <radialGradient cx="11.4670327%" cy="-40.4580495%" fx="11.4670327%" fy="-40.4580495%" r="343.189366%" id="radialGradient-5">
            <stop stop-color="#1172b8" offset="0%"></stop>
            <stop stop-color="#0e6bb8" offset="100%"></stop>
        </radialGradient>
    </defs>
    <g>
        <path d="M65.6992339,330.300644 L0.107733463,362.384436 L127.400289,424.384842 L255.039336,362.18981 L189.28052,329.651265 L127.352045,360.40471 L65.6992339,330.300644 Z" fill="url('#linearGradient-1')"></path>
        <path d="M57.6019991,98.1748765 L57.6019991,98.1541795 L127.531267,64.0476413 L197.46571,98.1541795 L255.003891,62.1986373 L127.484698,0 L0,62.1796642 L0,62.2348584 L57.5537042,98.1990237 L57.6019991,98.1748765 L57.6019991,98.1748765 Z" fill="url('#linearGradient-2')"></path>
        <path d="M0.15618046,298.428426 L63.071162,267.624645 L127.784793,299.667263 L0.15618046,362.461971 L0.15618046,298.428426 Z" fill="url('#radialGradient-3')"></path>
        <path d="M196.677541,99.4103235 C196.67754,132.999495 196.677539,200.177839 196.677539,200.177839 L126.336262,234.601641 L191.022434,266.940614 L254.000917,236.143726 L254.00091,62.1907831 L196.677541,98.1665853 L196.677541,99.4103235 Z" fill="url('#radialGradient-4')"></path>
        <path d="M255.003891,298.216498 L57.5889764,199.96591 L57.5889774,98.1815418 L1.42108547e-14,62.2302408 L1.42108547e-14,63.1375243 L1.42108547e-14,235.931797 L255.003891,362.253488 L255.003891,298.216498 Z" fill="url('#radialGradient-5')"></path>
    </g>
</svg>

<?xml version="1.0" encoding="UTF-8" standalone="no"?><!DOCTYPE svg PUBLIC "-//W3C//DTD SVG 1.1//EN" "http://www.w3.org/Graphics/SVG/1.1/DTD/svg11.dtd"><svg width="100%" height="100%" viewBox="0 0 256 425" version="1.1" xmlns="http://www.w3.org/2000/svg" xmlns:xlink="http://www.w3.org/1999/xlink" xml:space="preserve" xmlns:serif="http://www.serif.com/" style="fill-rule:evenodd;clip-rule:evenodd;stroke-linejoin:round;stroke-miterlimit:2;"><g><path d="M65.699,330.301l-65.591,32.083l127.292,62.001l127.639,-62.195l-65.758,-32.539l-61.929,30.754l-61.653,-30.104Z" style="fill:#177dc7;fill-rule:nonzero;"></path><path d="M65.699,330.301l-65.591,32.083l127.292,62.001l127.639,-62.195l-65.758,-32.539l-61.929,30.754l-61.653,-30.104Z" style="fill:#e0fbfc;fill-rule:nonzero;"></path><path d="M57.602,98.175l-0,-0.021l69.929,-34.106l69.935,34.106l57.538,-35.955l-127.519,-62.199l-127.485,62.18l0,0.055l57.554,35.964l0.048,-0.024Z" style="fill:#98c1d9;fill-rule:nonzero;"></path><path d="M0.156,298.428l62.915,-30.803l64.714,32.042l-127.629,62.795l0,-64.034Z" style="fill:#98c1d9;fill-rule:nonzero;"></path><path d="M196.678,98.167l0,102.011l-70.342,34.424l64.686,32.339l62.979,-30.797l0,-173.953l-57.323,35.976Z" style="fill:#98c1d9;fill-rule:nonzero;"></path><path d="M255.004,298.216l-197.415,-98.25l-0,-101.784l-57.589,-35.952l-0,173.702l255.004,126.321l-0,-64.037Z" style="fill:#e0fbfc;fill-rule:nonzero;"></path></g></svg>
